X:197
T: Der Kuckuck (3-38), S. 100
N: K1172
O: Luxemburg
S: KINTZELE, Guillaume: An der Ucht, Bd. 3 Luxemburg 1928]
R: Scherz-, Spiellied]
M: 2/4
L: 1/16
K: F
c4 | A2F2A2c2 | c2B2G4 |
F2FFF2F2 | F2FFA2FF | C4
c4 | A2F2A2c2 | c2B2G4 | F4

@@@ Tune index: 8251
